app/assets/images/heroicons/micro/bolt-slash.svg

<svg width="16" height="16" viewBox="0 0 16 16" fill="none" xmlns="http://www.w3.org/2000/svg">
<path d="M9.58011 1.07659C9.88578 1.22641 10.0522 1.56332 9.98545 1.89712L9.16486 6.00004H13.25C13.5437 6.00004 13.8103 6.1714 13.9323 6.43851C14.0542 6.70562 14.0091 7.01933 13.8168 7.24123L11.9129 9.43802L6.38525 3.91037L8.68324 1.25884C8.90619 1.00159 9.27444 0.926759 9.58011 1.07659Z" fill="#0F172A"/>
<path d="M4.08715 6.56202L9.6148 12.0897L7.31678 14.7412C7.09383 14.9985 6.72559 15.0733 6.41991 14.9235C6.11424 14.7737 5.94781 14.4368 6.01458 14.103L6.83516 10H2.75001C2.45637 10 2.18974 9.82868 2.06777 9.56157C1.9458 9.29446 1.99093 8.98074 2.18324 8.75884L4.08715 6.56202Z" fill="#0F172A"/>
<path d="M2.21967 2.21967C2.51256 1.92678 2.98744 1.92678 3.28033 2.21967L13.7803 12.7197C14.0732 13.0126 14.0732 13.4874 13.7803 13.7803C13.4874 14.0732 13.0126 14.0732 12.7197 13.7803L2.21967 3.28033C1.92678 2.98744 1.92678 2.51256 2.21967 2.21967Z" fill="#0F172A"/>
</svg>

<svg xmlns="http://www.w3.org/2000/svg" viewBox="0 0 16 16" fill="currentColor" aria-hidden="true" data-slot="icon">
  <path d="M9.58 1.077a.75.75 0 0 1 .405.82L9.165 6h4.085a.75.75 0 0 1 .567 1.241l-1.904 2.197L6.385 3.91 8.683 1.26a.75.75 0 0 1 .897-.182ZM4.087 6.562l5.528 5.528-2.298 2.651a.75.75 0 0 1-1.302-.638L6.835 10H2.75a.75.75 0 0 1-.567-1.241l1.904-2.197ZM2.22 2.22a.75.75 0 0 1 1.06 0l10.5 10.5a.75.75 0 1 1-1.06 1.06L2.22 3.28a.75.75 0 0 1 0-1.06Z"/>
</svg>
